X:1
T:Title
%%score { 1 | 2 }
L:1/8
Q:1/4=100
M:3/4
K:D
V:1 treble nm="Grand Piano"
V:2 bass 
V:1
 [FA][FA] [FA]2 [FA]2 | [GB][Bd] [Bd]4 | [Ad][FA] [FA]2 [DF]2 | [DF][CE] [CE]4 | %4
 [FA][FA] [FA]2 [FA]2 | [GB][Bd] [Bd]4 | [Ad][FA] [GB]2 [FA]2 | [DF][CE] D4 | %8
[M:2/4] [FA][FA] [DF][FA] | [GB] [Bd]3 | [Ad][FA] [FA][DF] | [DF] [CE]3 | [FA][FA] [DF][FA] | %13
 [GB] [Bd]2 [Be] | [Af]>[Fd] [Ge]>[Ec] | [Fd]4 |] %16
V:2
 D,D, D,2 D,2 | G,G, G,4 | F,D, D,2 F,2 | A,A, A,4 | D,D, D,2 D,2 | G,G, G,4 | F,D, G,2 D,2 | %7
 A,,A,, D,4 |[M:2/4] D,D, D,D, | G, G,3 | F,D, D,F, | A, A,3 | D,D, D,D, | G, G,2 G, | %14
 A,>A, A,>A, | D,4 |] %16

